X:1
T:Fibonaccinotes2
M:C
L:1/4
K:C
B G B1/2 G  | D1/2 F D E  | D B2 B2 A  | E1/2 C D1/2 D2  | C F D B1/2  | B C A C1/2  | E1/2 C2 D A  | E D1/2 D2 B1/2  | B D D1/2 E  | B1/2 B D D  | D E F C1/2  |

